X: 2
T: Gan Ainm
M: 4/4
L: 1/8
R: barndance / schottische
K: D Major
|: (3EFG | 
A>FA>f A2 ^G>A | B>GB>g B3 d | c2 c>B A>B (3cBA | F>DF>B A2 F>G |
A2 (3Adf (3ABA ^G>A | B>G (3Bcg B2 e>d | c>ec>B A2 (3gfe | d2 (3ABA D2 :|
|: c>d |
e>^de>f g>ec>e | d>cd>e f2 d>c | B>^AB>c d>c (3def | (3efe (3dcB A2 F>G |
A>FA>f A2 ^G>A | B>^AB>g (3BcB e>d | c2 (3ecB A>g (3gfe | d2 A2 d2 :|
